X:1
T:Title
%%score 1 2
L:1/8
Q:1/4=115
M:4/4
K:Eb
V:1 treble nm="Grand Piano, Soprano"
V:2 bass nm="Choir Pad, Ghaziabad, F. Mendelssohn"
V:1
 [B,G]4 [B,F]2 E2 | [EB]2 [EA]2 [EA]2 [EG]2 | F2 [B,E]2 [B,D]2 E2 | [EG]4 [DF]4 | %4
w: By~Arranged~from~Felix~Mendelssohn,~1834 * *||||
 [_DF]4 [CF]2 [CG]2 | [CA]2 [CA]2 [CA]2 [CF]2 | C2 [B,D]2 [DG]3 [DF] | E8 | [B,G]4 [B,F]2 E2 | %9
w: |||||
 [EB]2 [EA]2 [EA]2 [EG]2 | F2 [B,E]2 [B,D]2 E2 | [EG]4 [DF]4 | [_DF]4 [CF]2 [CG]2 | %13
w: ||||
 [CA]2 [CA]2 [CA]2 [CF]2 | C2 [B,D]2 [DG]3 [DF] | E8 | [B,G]4 [B,F]2 E2 | [Ee]6 [Fd]2 | %18
w: |||||
 [Ec]2 [_DB]2 [CA]2 [=EG]2 | [=Ec]4 F4 | F4 F2 [=EG]2 | [FA]6 [CF]2 | C2 [B,D]2 [DG]3 [DF] | E8 |] %24
w: ||||||
V:2
 [E,B,]4 [E,A,]2 [E,G,]2 | [C,A,]2 [C,A,]2 [C,A,]2 [E,B,]2 | [A,C]2 [G,B,]2 [F,A,]2 [E,G,]2 | %3
 [B,,B,]8 | B,4 [A,C]2 [G,B,]2 | [F,A,]2 [F,A,]2 [F,A,]2 [F,A,]2 | %6
 [F,A,]2 [F,A,]2 [B,,A,]3 [B,,A,] | [E,G,]8 | [E,B,]4 [E,A,]2 [E,G,]2 | %9
 [C,A,]2 [C,A,]2 [C,A,]2 [E,B,]2 | [A,C]2 [G,B,]2 [F,A,]2 [E,G,]2 | [B,,B,]8 | B,4 [A,C]2 [G,B,]2 | %13
 [F,A,]2 [F,A,]2 [F,A,]2 [F,A,]2 | [F,A,]2 [F,A,]2 [B,,A,]3 [B,,A,] | [E,G,]8 | %16
 [E,B,]4 [E,A,]2 [E,G,]2 | [C,G,]6 [D,G,]2 | [E,G,]2 [=E,G,]2 [F,A,]2 [G,B,]2 | [G,B,]4 [A,C]4 | %20
 [B,_D]4 [A,C]2 [G,B,]2 | [F,A,]6 [F,A,]2 | [F,A,]2 [F,A,]2 [B,,A,]3 [B,,A,] | [E,G,]8 |] %24

